; G-Code generated by Simplify3D(R) Version 3.0.2
; 十一月 6, 2017 at 9:54:59 下午
; Settings Summary
;   processName,Process1
;   applyToModels,3DBenchy
;   profileName,T-Rex 2+ Single Extruder (modified)
;   profileVersion,2017-11-06 10:35:53
;   baseProfile,Default
;   printMaterial,PLA
;   printQuality,Medium
;   printExtruders,
;   extruderName,Extruder 1
;   extruderToolheadNumber,0
;   extruderDiameter,0.4
;   extruderAutoWidth,0
;   extruderWidth,0.4
;   extrusionMultiplier,0.96
;   extruderUseRetract,1
;   extruderRetractionDistance,2
;   extruderExtraRestartDistance,0
;   extruderRetractionZLift,0
;   extruderRetractionSpeed,1800
;   extruderUseCoasting,0
;   extruderCoastingDistance,0.2
;   extruderUseWipe,0
;   extruderWipeDistance,5
;   primaryExtruder,0
;   layerHeight,0.2
;   topSolidLayers,3
;   bottomSolidLayers,3
;   perimeterOutlines,3
;   printPerimetersInsideOut,1
;   startPointOption,2
;   startPointOriginX,0
;   startPointOriginY,0
;   startPointOriginZ,300
;   sequentialIslands,0
;   spiralVaseMode,0
;   firstLayerHeightPercentage,100
;   firstLayerWidthPercentage,150
;   firstLayerUnderspeed,0.5
;   useRaft,0
;   raftExtruder,0
;   raftLayers,3
;   raftOffset,3
;   raftSeparationDistance,0
;   raftInfill,85
;   disableRaftBaseLayers,1
;   useSkirt,1
;   skirtExtruder,0
;   skirtLayers,1
;   skirtOutlines,2
;   skirtOffset,5
;   usePrimePillar,0
;   primePillarExtruder,999
;   primePillarWidth,12
;   primePillarLocation,0
;   primePillarSpeedMultiplier,1
;   useOozeShield,0
;   oozeShieldExtruder,999
;   oozeShieldOffset,2
;   oozeShieldOutlines,1
;   oozeShieldSidewallShape,1
;   oozeShieldSidewallAngle,30
;   oozeShieldSpeedMultiplier,1
;   infillExtruder,0
;   internalInfillPattern,Rectilinear
;   externalInfillPattern,Rectilinear
;   infillPercentage,15
;   outlineOverlapPercentage,15
;   infillExtrusionWidthPercentage,100
;   minInfillLength,5
;   infillLayerInterval,1
;   infillAngles,45,-45
;   overlapInfillAngles,0
;   generateSupport,0
;   supportExtruder,0
;   supportInfillPercentage,30
;   supportExtraInflation,0
;   denseSupportLayers,0
;   denseSupportInfillPercentage,70
;   supportLayerInterval,1
;   supportHorizontalPartOffset,0.3
;   supportUpperSeparationLayers,1
;   supportLowerSeparationLayers,1
;   supportType,0
;   supportGridSpacing,4
;   maxOverhangAngle,45
;   supportAngles,0
;   temperatureName,Extruder 1 Temperature
;   temperatureNumber,0
;   temperatureSetpointCount,1
;   temperatureSetpointLayers,1
;   temperatureSetpointTemperatures,200
;   temperatureStabilizeAtStartup,1
;   temperatureHeatedBed,0
;   temperatureRelayBetweenLayers,0
;   temperatureRelayBetweenLoops,0
;   fanLayers,1,5
;   fanSpeeds,0,100
;   blipFanToFullPower,0
;   adjustSpeedForCooling,1
;   minSpeedLayerTime,15
;   minCoolingSpeedSlowdown,20
;   increaseFanForCooling,0
;   minFanLayerTime,45
;   maxCoolingFanSpeed,100
;   increaseFanForBridging,0
;   bridgingFanSpeed,100
;   use5D,1
;   relativeEdistances,0
;   allowEaxisZeroing,1
;   independentExtruderAxes,0
;   includeM10123,0
;   stickySupport,1
;   applyToolheadOffsets,0
;   gcodeXoffset,0
;   gcodeYoffset,0
;   gcodeZoffset,0
;   overrideMachineDefinition,1
;   machineTypeOverride,0
;   strokeXoverride,400
;   strokeYoverride,400
;   strokeZoverride,500
;   originOffsetXoverride,0
;   originOffsetYoverride,0
;   originOffsetZoverride,0
;   homeXdirOverride,-1
;   homeYdirOverride,-1
;   homeZdirOverride,-1
;   flipXoverride,1
;   flipYoverride,-1
;   flipZoverride,1
;   toolheadOffsets,0,0|0,0|0,0|0,0|0,0|0,0
;   overrideFirmwareConfiguration,1
;   firmwareTypeOverride,RepRap (Marlin/Repetier/Sprinter)
;   GPXconfigOverride,r2
;   baudRateOverride,250000
;   overridePrinterModels,0
;   printerModelsOverride
;   startingGcode,M605 S1,T0,G28 ; home all axes,M420 S1,G1 X-42 F8000,G92 E0,G1 E5 F300,G1 X0 F5000,G1 X-40,G1 X0,G1 X-40,G1 X0,G1 X-40,G1 X150 ,G1 Y200 F5000
;   layerChangeGcode,
;   retractionGcode,
;   toolChangeGcode,
;   endingGcode,G28 X0 Y0,M104 S0 T1 ; turn off extruder,M104 S0 T0,M140 S0 ; turn off bed,G28 X0,M106 S127,M84 ; disable motors
;   createX3G,0
;   celebration,0
;   celebrationSong,Random Song
;   createMB5G,0
;   postProcessing,
;   defaultSpeed,3000
;   outlineUnderspeed,0.5
;   solidInfillUnderspeed,0.8
;   supportUnderspeed,0.8
;   rapidXYspeed,4800
;   rapidZspeed,1000
;   minBridgingArea,50
;   bridgingExtraInflation,0
;   bridgingExtrusionMultiplier,1
;   bridgingSpeedMultiplier,1
;   filamentDiameter,1.75
;   filamentPricePerKg,46
;   filamentDensity,1.25
;   useMinPrintHeight,0
;   minPrintHeight,0
;   useMaxPrintHeight,0
;   maxPrintHeight,0
;   useDiaphragm,0
;   diaphragmLayerInterval,20
;   robustSlicing,1
;   mergeAllIntoSolid,0
;   onlyRetractWhenCrossingOutline,1
;   retractBetweenLayers,1
;   useRetractionMinTravel,0
;   retractionMinTravel,3
;   retractWhileWiping,0
;   onlyWipeOutlines,1
;   avoidCrossingOutline,0
;   maxMovementDetourFactor,3
;   toolChangeRetractionDistance,35
;   toolChangeExtraRestartDistance,-0.5
;   toolChangeRetractionSpeed,600
;   allowThinWallGapFill,1
;   thinWallAllowedOverlapPercentage,10
;   horizontalSizeCompensation,0
G90
M82
M190 S60
M140 S60
M104 S200 T0
M109 S200 T0
T0
G28 ; home all axes
M420 S1
G1 X-42 F8000
G92 E0
G1 E5 F300
G1 X0 F5000
G1 X-40
G1 X0
G1 X-40
G1 X0
G1 X-40
G1 X200 
G1 Y200 F5000
G92 E0
G1 E-3.0000 F1800
G1 Z0.200 F1000
; layer 1, Z = 0.2
T0
; tool H0.200 W0.600
; skirt
G1 X171.069 Y189.514 F4800
G1 E0.0000 F540
G92 E0
G1 X171.503 Y189.168 E0.0266 F1500
G1 X171.528 Y189.150 E0.0281
G1 X172.277 Y188.671 E0.0706
G1 X172.304 Y188.656 E0.0721
G1 X172.792 Y188.411 E0.0983
G1 X172.820 Y188.399 E0.0997
G1 X173.659 Y188.081 E0.1427
G1 X173.687 Y188.071 E0.1441
G1 X174.185 Y187.936 E0.1688
G1 X174.213 Y187.930 E0.1702
G1 X174.928 Y187.809 E0.2050
G1 X174.944 Y187.807 E0.2057
G1 X175.227 Y187.774 E0.2193
G1 X175.243 Y187.773 E0.2201
G1 X199.206 Y186.319 E1.3699
G1 X199.214 Y186.318 E1.3703
G1 X199.352 Y186.314 E1.3769
G1 X199.359 Y186.314 E1.3773
G1 X200.421 Y186.304 E1.4281
G1 X200.429 Y186.304 E1.4285
G1 X200.576 Y186.307 E1.4356
G1 X200.585 Y186.308 E1.4360
G1 X201.475 Y186.350 E1.4787
G1 X201.483 Y186.350 E1.4791
G1 X201.626 Y186.361 E1.4859
G1 X201.634 Y186.361 E1.4863
G1 X202.606 Y186.460 E1.5331
G1 X202.615 Y186.461 E1.5335
G1 X202.771 Y186.481 E1.5411
G1 X202.780 Y186.483 E1.5415
G1 X203.818 Y186.650 E1.5918
G1 X203.826 Y186.652 E1.5923
G1 X203.973 Y186.680 E1.5994
G1 X203.982 Y186.682 E1.5998
G1 X204.952 Y186.895 E1.6474
G1 X204.962 Y186.898 E1.6479
G1 X205.130 Y186.941 E1.6562
G1 X205.139 Y186.943 E1.6567
G1 X206.365 Y187.299 E1.7178
G1 X206.375 Y187.301 E1.7183
G1 X206.542 Y187.356 E1.7267
G1 X206.551 Y187.359 E1.7272
G1 X207.554 Y187.724 E1.7783
G1 X207.562 Y187.727 E1.7787
G1 X207.704 Y187.783 E1.7860
G1 X207.712 Y187.786 E1.7864
G1 X208.575 Y188.157 E1.8314
G1 X208.582 Y188.160 E1.8318
G1 X208.711 Y188.220 E1.8386
G1 X208.718 Y188.223 E1.8390
G1 X209.526 Y188.623 E1.8821
G1 X209.534 Y188.627 E1.8826
G1 X209.671 Y188.700 E1.8900
G1 X209.679 Y188.704 E1.8904
G1 X210.693 Y189.282 E1.9463
G1 X210.701 Y189.287 E1.9468
G1 X210.840 Y189.372 E1.9546
G1 X210.848 Y189.377 E1.9550
G1 X211.707 Y189.939 E2.0042
G1 X211.714 Y189.944 E2.0046
G1 X211.834 Y190.028 E2.0116
G1 X211.841 Y190.033 E2.0120
G1 X212.593 Y190.587 E2.0568
G1 X212.600 Y190.592 E2.0572
G1 X212.725 Y190.690 E2.0648
G1 X212.731 Y190.695 E2.0652
G1 X213.587 Y191.408 E2.1185
G1 X213.595 Y191.415 E2.1190
G1 X213.726 Y191.532 E2.1275
G1 X213.733 Y191.539 E2.1279
G1 X214.618 Y192.381 E2.1864
G1 X214.625 Y192.388 E2.1869
G1 X214.748 Y192.513 E2.1953
G1 X214.754 Y192.520 E2.1958
G1 X215.492 Y193.322 E2.2479
G1 X215.498 Y193.330 E2.2484
G1 X215.613 Y193.464 E2.2569
G1 X215.620 Y193.471 E2.2574
G1 X216.417 Y194.464 E2.3184
G1 X216.424 Y194.472 E2.3188
G1 X216.532 Y194.617 E2.3275
G1 X216.538 Y194.625 E2.3280
G1 X217.165 Y195.525 E2.3805
G1 X217.170 Y195.533 E2.3810
G1 X217.268 Y195.683 E2.3895
G1 X217.273 Y195.692 E2.3900
G1 X217.918 Y196.765 E2.4500
G1 X217.931 Y196.790 E2.4513
G1 X218.149 Y197.244 E2.4755
G1 X218.160 Y197.271 E2.4769
G1 X218.443 Y198.044 E2.5163
G1 X218.453 Y198.078 E2.5180
G1 X218.599 Y198.696 E2.5484
G1 X218.605 Y198.732 E2.5501
G1 X218.725 Y199.802 E2.6017
G1 X218.726 Y199.844 E2.6038
G1 X218.703 Y200.601 E2.6400
G1 X218.699 Y200.643 E2.6420
G1 X218.526 Y201.630 E2.6900
G1 X218.519 Y201.661 E2.6915
G1 X218.365 Y202.198 E2.7183
G1 X218.355 Y202.228 E2.7198
G1 X218.081 Y202.904 E2.7547
G1 X218.071 Y202.926 E2.7559
G1 X217.876 Y203.313 E2.7767
G1 X217.864 Y203.335 E2.7778
G1 X217.224 Y204.384 E2.8367
G1 X217.219 Y204.392 E2.8372
G1 X217.129 Y204.529 E2.8450
G1 X217.124 Y204.537 E2.8455
G1 X216.567 Y205.336 E2.8921
G1 X216.561 Y205.343 E2.8925
G1 X216.466 Y205.471 E2.9002
G1 X216.460 Y205.478 E2.9006
G1 X215.750 Y206.375 E2.9554
G1 X215.744 Y206.382 E2.9559
G1 X215.647 Y206.498 E2.9631
G1 X215.642 Y206.504 E2.9635
G1 X215.096 Y207.118 E3.0028
G1 X215.090 Y207.124 E3.0032
G1 X214.993 Y207.227 E3.0100
G1 X214.987 Y207.233 E3.0104
G1 X214.192 Y208.037 E3.0646
G1 X214.185 Y208.043 E3.0650
G1 X214.068 Y208.155 E3.0728
G1 X214.061 Y208.161 E3.0732
G1 X213.310 Y208.832 E3.1214
G1 X213.303 Y208.838 E3.1219
G1 X213.176 Y208.944 E3.1298
G1 X213.169 Y208.950 E3.1303
G1 X212.262 Y209.663 E3.1855
G1 X212.255 Y209.669 E3.1859
G1 X212.122 Y209.766 E3.1938
G1 X212.115 Y209.772 E3.1943
G1 X211.271 Y210.355 E3.2434
G1 X211.264 Y210.359 E3.2438
G1 X211.140 Y210.440 E3.2509
G1 X211.133 Y210.444 E3.2513
G1 X210.357 Y210.918 E3.2948
G1 X210.350 Y210.922 E3.2952
G1 X210.227 Y210.993 E3.3020
G1 X210.219 Y210.997 E3.3024
G1 X209.322 Y211.481 E3.3512
G1 X209.315 Y211.485 E3.3516
G1 X209.185 Y211.551 E3.3586
G1 X209.177 Y211.554 E3.3590
G1 X208.343 Y211.947 E3.4032
G1 X208.336 Y211.950 E3.4036
G1 X208.206 Y212.007 E3.4103
G1 X208.199 Y212.010 E3.4107
G1 X207.307 Y212.372 E3.4568
G1 X207.299 Y212.376 E3.4573
G1 X207.155 Y212.429 E3.4646
G1 X207.146 Y212.432 E3.4650
G1 X206.177 Y212.762 E3.5141
G1 X206.169 Y212.765 E3.5145
G1 X206.025 Y212.809 E3.5217
G1 X206.017 Y212.812 E3.5221
G1 X205.078 Y213.073 E3.5688
G1 X205.068 Y213.076 E3.5693
G1 X204.901 Y213.117 E3.5775
G1 X204.891 Y213.119 E3.5780
G1 X203.611 Y213.387 E3.6407
G1 X203.601 Y213.389 E3.6411
G1 X203.427 Y213.420 E3.6496
G1 X203.418 Y213.421 E3.6500
G1 X202.398 Y213.565 E3.6994
G1 X202.387 Y213.566 E3.6999
G1 X202.186 Y213.587 E3.7096
G1 X202.175 Y213.588 E3.7101
G1 X200.548 Y213.692 E3.7882
G1 X200.536 Y213.693 E3.7888
G1 X200.332 Y213.698 E3.7986
G1 X200.320 Y213.698 E3.7991
G1 X199.311 Y213.685 E3.8474
G1 X199.304 Y213.685 E3.8478
G1 X199.178 Y213.680 E3.8538
G1 X199.171 Y213.680 E3.8541
G1 X175.246 Y212.229 E5.0021
G1 X175.226 Y212.227 E5.0031
G1 X174.874 Y212.182 E5.0201
G1 X174.854 Y212.178 E5.0211
G1 X173.924 Y211.995 E5.0665
G1 X173.894 Y211.988 E5.0680
G1 X173.361 Y211.823 E5.0946
G1 X173.332 Y211.812 E5.0961
G1 X172.628 Y211.511 E5.1328
G1 X172.604 Y211.499 E5.1341
G1 X172.195 Y211.280 E5.1563
G1 X172.173 Y211.267 E5.1576
G1 X171.488 Y210.818 E5.1968
G1 X171.465 Y210.802 E5.1981
G1 X171.082 Y210.497 E5.2216
G1 X171.061 Y210.479 E5.2229
G1 X170.531 Y209.971 E5.2580
G1 X170.513 Y209.952 E5.2593
G1 X170.202 Y209.595 E5.2820
G1 X170.185 Y209.574 E5.2833
G1 X169.650 Y208.837 E5.3269
G1 X169.630 Y208.806 E5.3287
G1 X169.312 Y208.229 E5.3602
G1 X169.296 Y208.195 E5.3620
G1 X168.858 Y207.098 E5.4186
G1 X168.846 Y207.061 E5.4205
G1 X168.675 Y206.391 E5.4536
G1 X168.668 Y206.352 E5.4555
G1 X168.549 Y205.357 E5.5035
G1 X168.547 Y205.339 E5.5043
G1 X168.528 Y205.023 E5.5195
G1 X168.528 Y205.006 E5.5203
G1 X168.528 Y195.038 E5.9977
G1 X168.528 Y195.027 E5.9982
G1 X168.535 Y194.839 E6.0072
G1 X168.535 Y194.829 E6.0077
G1 X168.574 Y194.277 E6.0343
G1 X168.577 Y194.254 E6.0353
G1 X168.636 Y193.857 E6.0546
G1 X168.640 Y193.835 E6.0557
G1 X168.822 Y193.027 E6.0953
G1 X168.831 Y192.997 E6.0968
G1 X169.000 Y192.491 E6.1224
G1 X169.011 Y192.463 E6.1238
G1 X169.387 Y191.630 E6.1676
G1 X169.401 Y191.603 E6.1690
G1 X169.661 Y191.151 E6.1940
G1 X169.677 Y191.126 E6.1954
G1 X170.118 Y190.509 E6.2317
G1 X170.134 Y190.489 E6.2330
G1 X170.431 Y190.140 E6.2549
G1 X170.449 Y190.121 E6.2562
G1 X171.045 Y189.534 E6.2962
G1 X171.069 Y189.514 E6.2977
G1 X171.326 Y189.820 F4800
G92 E0
G1 X171.744 Y189.487 E0.0256 F1500
G1 X171.752 Y189.481 E0.0261
G1 X172.484 Y189.014 E0.0676
G1 X172.493 Y189.009 E0.0681
G1 X172.962 Y188.773 E0.0933
G1 X172.972 Y188.769 E0.0938
G1 X173.792 Y188.458 E0.1358
G1 X173.801 Y188.455 E0.1363
G1 X174.280 Y188.325 E0.1601
G1 X174.290 Y188.323 E0.1605
G1 X174.990 Y188.204 E0.1945
G1 X174.995 Y188.203 E0.1948
G1 X175.267 Y188.172 E0.2079
G1 X175.272 Y188.172 E0.2081
G1 X199.228 Y186.718 E1.3576
G1 X199.230 Y186.718 E1.3577
G1 X199.363 Y186.714 E1.3641
G1 X199.365 Y186.714 E1.3642
G1 X200.421 Y186.704 E1.4148
G1 X200.424 Y186.704 E1.4149
G1 X200.566 Y186.707 E1.4217
G1 X200.569 Y186.707 E1.4218
G1 X201.454 Y186.749 E1.4642
G1 X201.456 Y186.749 E1.4644
G1 X201.593 Y186.759 E1.4710
G1 X201.596 Y186.760 E1.4711
G1 X202.563 Y186.858 E1.5176
G1 X202.566 Y186.858 E1.5178
G1 X202.716 Y186.878 E1.5250
G1 X202.719 Y186.878 E1.5252
G1 X203.751 Y187.045 E1.5752
G1 X203.754 Y187.045 E1.5754
G1 X203.896 Y187.072 E1.5823
G1 X203.898 Y187.073 E1.5824
G1 X204.863 Y187.285 E1.6297
G1 X204.866 Y187.286 E1.6299
G1 X205.028 Y187.327 E1.6379
G1 X205.031 Y187.328 E1.6380
G1 X206.251 Y187.682 E1.6989
G1 X206.254 Y187.683 E1.6990
G1 X206.415 Y187.735 E1.7071
G1 X206.418 Y187.736 E1.7073
G1 X207.415 Y188.098 E1.7581
G1 X207.418 Y188.100 E1.7582
G1 X207.554 Y188.153 E1.7652
G1 X207.556 Y188.155 E1.7654
G1 X208.414 Y188.523 E1.8101
G1 X208.417 Y188.524 E1.8102
G1 X208.541 Y188.582 E1.8168
G1 X208.543 Y188.583 E1.8169
G1 X209.346 Y188.980 E1.8598
G1 X209.349 Y188.981 E1.8600
G1 X209.481 Y189.052 E1.8671
G1 X209.483 Y189.053 E1.8673
G1 X210.492 Y189.628 E1.9229
G1 X210.495 Y189.630 E1.9230
G1 X210.629 Y189.712 E1.9305
G1 X210.632 Y189.713 E1.9307
G1 X211.486 Y190.272 E1.9796
G1 X211.488 Y190.274 E1.9797
G1 X211.604 Y190.355 E1.9865
G1 X211.606 Y190.356 E1.9866
G1 X212.353 Y190.907 E2.0311
G1 X212.356 Y190.909 E2.0312
G1 X212.475 Y191.003 E2.0385
G1 X212.478 Y191.004 E2.0386
G1 X213.328 Y191.713 E2.0917
G1 X213.331 Y191.716 E2.0918
G1 X213.457 Y191.828 E2.1000
G1 X213.460 Y191.831 E2.1001
G1 X214.339 Y192.668 E2.1583
G1 X214.342 Y192.671 E2.1584
G1 X214.460 Y192.791 E2.1665
G1 X214.462 Y192.794 E2.1667
G1 X215.195 Y193.591 E2.2185
G1 X215.197 Y193.593 E2.2187
G1 X215.308 Y193.722 E2.2268
G1 X215.310 Y193.724 E2.2270
G1 X216.103 Y194.712 E2.2877
G1 X216.106 Y194.715 E2.2878
G1 X216.210 Y194.854 E2.2962
G1 X216.212 Y194.857 E2.2963
G1 X216.835 Y195.750 E2.3485
G1 X216.837 Y195.753 E2.3487
G1 X216.930 Y195.898 E2.3569
G1 X216.932 Y195.901 E2.3571
G1 X217.570 Y196.962 E2.4164
G1 X217.574 Y196.971 E2.4169
G1 X217.784 Y197.408 E2.4401
G1 X217.787 Y197.417 E2.4405
G1 X218.063 Y198.170 E2.4789
G1 X218.067 Y198.181 E2.4795
G1 X218.207 Y198.776 E2.5088
G1 X218.209 Y198.788 E2.5094
G1 X218.326 Y199.832 E2.5597
G1 X218.326 Y199.846 E2.5604
G1 X218.304 Y200.574 E2.5952
G1 X218.302 Y200.588 E2.5959
G1 X218.134 Y201.550 E2.6427
G1 X218.131 Y201.561 E2.6432
G1 X217.983 Y202.078 E2.6690
G1 X217.980 Y202.088 E2.6695
G1 X217.714 Y202.746 E2.7035
G1 X217.710 Y202.753 E2.7039
G1 X217.523 Y203.126 E2.7238
G1 X217.519 Y203.133 E2.7242
G1 X216.884 Y204.173 E2.7826
G1 X216.882 Y204.176 E2.7827
G1 X216.796 Y204.308 E2.7903
